X:1
T:It Is for Us All Today
T:It Is for Us All Today
T:Leander Lycurgus Pickett
T:Leander Lycurgus Pickett, 1897
T:Public Domain Courtesy of the Cyber Hymnal™
T:Public Domain Courtesy of the Cyber Hymnal™
C:Leander Lycurgus Pickett
Z:Public Domain
Z:Courtesy of the Cyber Hymnal™
%%score ( 1 2 ) ( 3 4 )
L:1/8
Q:1/4=95
M:4/4
K:Db
V:1 treble 
V:2 treble 
V:3 bass 
V:4 bass 
V:1
 [DF]>[EG] | [FA]>[FA] [FA]>[FA] [FA]<[Fd] [Ac]>[GB] | [GB]>[FA] [FA]>[FA] [FA]2 [CE]>[DF] | %3
w: 1.~Have you|ev- er felt the pow- er Of the|Pen- te- cos- tal fire, Burn- ing|
w: 2.~Je- sus|of- fers this blest cleans- ing Un- to|all His child- ren dear, Full- y,|
w: 3.~Some have|thought they could not live it While they|dwell on earth be- low, But in|
w: 4.~You may|now re- ceive the Spir- it As a|sanc- ti- fy- ing flame If with|
 [EG]>[EG] [EG]>[EG] [EG]<[Gc] [Gc]>[GB] | [GB]>[FA] [FA]>[FA] [FA]2 [DF]>[EG] | %5
w: up all car- nal na- ture, Cleans- ing|out all base de- sire, Go- ing|
w: free- ly pur- i- fy- ing, Ban- ish-|ing all doubt and fear. It will|
w: this they were mis- tak- en, For the|Bi- ble tells us so. And the|
w: all your heart you seek Him, Hav- ing|faith in Je- sus’ name. On the|
 [FA]>[FA] [FA]>[FA] [FA]<[Fd] [Af]>[=Ae] | [Bd]>[Be] [Bd]>[GB] [FA]2 [FA]>[FA] | %7
w: through and through your spir- it, Cleans- ing|all its stain a- way? Oh, I’m|
w: help you, O my bro- ther, When you|sing and when you pray. He is|
w: Spir- it now is with us; He can|keep us all the way. Then by|
w: cross He bought this bless- ing; He will|nev- er say us nay. He is|
 [GB]>[DG] [Gd]>[GB] [GB]<[FA] [FA]>[Ad] | [Ac]>A [GB]>[Gc] [Fd]2 ||"^Refrain" A>A | A4 A>G F>A | %11
w: glad, so glad to tell you It is|for us all to- day.|||
w: wait- ing now to give it. It is|for us all to- day.|It is|for * us all to-|
w: faith why not re- ceive it? It is|for us all to- day.|||
w: wait- ing now to give it, It is|for us all to- day.|||
 d4- [Fd]2 [Fd]>[Ac] | [GB]4- [GB]>[Ac] [Bd]>[GB] | [FA]6 [DF]>[EG] | %14
w: |||
w: day If we *|* * trust and tru-|ly pray. Con-|
w: |||
w: |||
 [FA]>[FA] [FA]>[Fd] [Af]2 [Af]>[=Ae] | [Bd]>[Be] [Bd]>[GB] [FA]2 [GB]2 | %16
w: ||
w: se- crate to Christ your all, And|up- on the Sav- ior call.|
w: ||
w: ||
 [FA]2 [Fd]>[Fd] [Gc]>[GA] [GB]>[Gc] | d6 |] %18
w: ||
w: Bless God, it is for us all|to-|
w: ||
w: ||
V:2
 x2 | x8 | x8 | x8 | x8 | x8 | x8 | x8 | x3/2 A/ x4 || x2 | (F>GA->G E2) x2 | F>DF>A x4 | x8 | x8 | %14
 x8 | x8 | x8 | (F2 G2 F2) |] %18
V:3
 [D,A,]>[D,A,] | [D,D]>[D,D] [D,D]>[D,D] [D,D]>[D,D] [D,D]>[D,D] | %2
w: ~ ~|~ ~ ~ ~ ~ ~ ~ ~|
 [D,D]>[D,D] [D,D]>[D,D] [D,D]2 A,>A, | [A,C]>[A,C] [A,C]>[A,C] [A,C]<[A,E] [A,,E]>[A,,C] | %4
w: ~ ~ ~ ~ ~ ~ ~|~ ~ ~ ~ ~ ~ ~ ~|
 [D,D]>[D,D] [D,D]>[D,D] [D,D]2 [D,A,]>[D,A,] | [D,D]>[D,D] [D,D]>[D,D] [D,D]>[D,D] [D,D]>[F,D] | %6
w: ~ ~ ~ ~ ~ ~ ~|~ ~ ~ ~ ~ ~ ~ ~|
 [G,D]>[G,D] [G,D]>[G,D] [D,D]2 [D,D]>[D,D] | [G,D]>[G,B,] [G,B,]>[G,D] [D,D]<[D,D] [D,D]>[F,D] | %8
w: ~ ~ ~ ~ ~ ~ ~|~ ~ ~ ~ ~ ~ ~ ~|
 [A,E]>[A,C] [A,,C]>[A,,E] [D,D]2 || z2 | [D,D]>[E,C] [F,D]>[A,C] [D,A,]2 z2 | %11
w: ~ ~ ~ ~ ~||It is for us all|
 [D,A,]>[F,A,] A,>[F,A,] [D,A,]2 z2 | [G,D]>[G,D] [G,D]>[G,D] [G,D]2 [G,D]>[G,D] | %13
w: for us all to- day|If we trust and pray, if we|
 [D,D]>[D,D] [D,D]>[D,D] [D,D]2 [D,A,]>[D,A,] | [D,D]>[D,D] [D,D]>[D,D] [D,D]2 [D,D]>[F,D] | %15
w: tru- ly trust and pray * *||
 [G,D]>[G,D] [G,D]>[G,D] [D,D]2 [G,D]2 | [A,D]2 [A,D]>[A,D] [A,E]>[A,C] [A,C]>A, | (A,2 B,2 A,2) |] %18
w: |||
V:4
 x2 | x8 | x6 A,>A, | x8 | x8 | x8 | x8 | x8 | x6 || x2 | x8 | x2 A,3/2 x9/2 | x8 | x8 | x8 | x8 | %16
 x15/2 A,/ | D,6 |] %18

